austria/municipalities/41512.svg

<?xml version="1.0" encoding="UTF-8"?>
<!DOCTYPE svg PUBLIC "-//W3C//DTD SVG 1.1//EN" "http://www.w3.org/Graphics/SVG/1.1/DTD/svg11.dtd">
<svg xmlns="http://www.w3.org/2000/svg" version="1.1" width="166px" height="207px" style="shape-rendering:geometricPrecision; text-rendering:geometricPrecision; image-rendering:optimizeQuality; fill-rule:evenodd; clip-rule:evenodd" xmlns:xlink="http://www.w3.org/1999/xlink">
<g><path style="opacity:1" fill="#000000" d="M -0.5,-0.5 C 54.8333,-0.5 110.167,-0.5 165.5,-0.5C 165.5,44.1667 165.5,88.8333 165.5,133.5C 157.475,172.524 134.142,196.858 95.5,206.5C 86.8333,206.5 78.1667,206.5 69.5,206.5C 30.0061,196.67 6.67281,171.67 -0.5,131.5C -0.5,87.5 -0.5,43.5 -0.5,-0.5 Z"/></g>
<g><path style="opacity:1" fill="#fefffe" d="M 3.5,3.5 C 7.18174,3.3347 10.8484,3.50137 14.5,4C 55.1167,62.06 95.6167,120.227 136,178.5C 136.667,179.5 136.667,180.5 136,181.5C 131.795,186.017 126.962,189.683 121.5,192.5C 120.522,192.023 119.689,191.357 119,190.5C 80.6667,135.5 42.3333,80.5 4,25.5C 3.50034,18.1742 3.33368,10.8409 3.5,3.5 Z"/></g>
<g><path style="opacity:1" fill="#e10a15" d="M 17.5,4.5 C 65.3304,3.50118 113.33,3.16784 161.5,3.5C 161.667,47.8346 161.5,92.1679 161,136.5C 157.829,152.678 150.496,166.678 139,178.5C 98.2771,120.618 57.7771,62.618 17.5,4.5 Z"/></g>
<g><path style="opacity:1" fill="#000000" d="M 80.5,7.5 C 83.1588,10.2433 84.9921,13.5766 86,17.5C 88.5402,19.7047 90.7068,22.2047 92.5,25C 90.5,25.3333 88.5,25.6667 86.5,26C 89.1153,30.2829 92.1153,34.2829 95.5,38C 93.5273,38.4955 91.5273,38.6621 89.5,38.5C 91.1369,43.0845 93.8036,47.0845 97.5,50.5C 95.9223,51.2978 94.2556,51.7978 92.5,52C 95.1937,54.6937 97.8604,57.3604 100.5,60C 95.5373,61.7095 90.5373,61.8762 85.5,60.5C 84.6689,67.4764 84.1689,74.4764 84,81.5C 82.3333,82.8333 80.6667,82.8333 79,81.5C 78.8311,74.4764 78.3311,67.4764 77.5,60.5C 72.3515,62.0314 67.3515,61.6981 62.5,59.5C 65.3174,57.1833 67.9841,54.6833 70.5,52C 68.5,51.6667 66.5,51.3333 64.5,51C 68.9472,47.7429 71.9472,43.5762 73.5,38.5C 71.4727,38.6621 69.4727,38.4955 67.5,38C 72.0377,34.9753 74.7044,30.8086 75.5,25.5C 73.712,25.7852 72.0453,25.4519 70.5,24.5C 75.6536,19.853 78.987,14.1864 80.5,7.5 Z"/></g>
<g><path style="opacity:1" fill="#fefffe" d="M 80.5,12.5 C 83.2231,16.2099 86.2231,19.8766 89.5,23.5C 88.3112,24.4287 86.9778,24.762 85.5,24.5C 85.8671,29.7313 88.2004,33.8979 92.5,37C 91.451,37.4922 90.451,37.3256 89.5,36.5C 88.2801,36.8869 87.6135,37.7202 87.5,39C 88.619,42.7412 90.619,45.9079 93.5,48.5C 92.675,49.3857 91.675,49.719 90.5,49.5C 91.725,53.4365 94.0583,56.6032 97.5,59C 92.8452,59.4992 88.1785,59.6658 83.5,59.5C 83.5,66.5 83.5,73.5 83.5,80.5C 82.1667,80.5 80.8333,80.5 79.5,80.5C 79.5,73.5 79.5,66.5 79.5,59.5C 75.1539,59.6657 70.8206,59.499 66.5,59C 70.0287,56.6692 72.0287,53.5025 72.5,49.5C 71.325,49.719 70.325,49.3857 69.5,48.5C 73.3197,45.3837 74.9864,41.5504 74.5,37C 73.2624,37.0773 72.2624,36.9106 71.5,36.5C 75.1066,33.2868 77.1066,29.2868 77.5,24.5C 76.0222,24.762 74.6888,24.4287 73.5,23.5C 77.0709,20.6007 79.4043,16.934 80.5,12.5 Z"/></g>
<g><path style="opacity:1" fill="#000000" d="M 126.5,17.5 C 129.033,23.2293 131.866,28.8959 135,34.5C 138.357,38.3562 141.524,42.3562 144.5,46.5C 141.5,47.1667 138.5,47.8333 135.5,48.5C 139.19,56.019 143.856,62.8523 149.5,69C 145.747,69.091 142.08,69.2577 138.5,69.5C 142.174,76.6805 147.174,82.8471 153.5,88C 150.118,88.1764 146.785,88.6764 143.5,89.5C 147.685,94.5183 152.351,99.0183 157.5,103C 156.377,104.044 155.044,104.71 153.5,105C 146.131,105.726 138.798,105.559 131.5,104.5C 131.667,115.838 131.5,127.172 131,138.5C 128,139.833 125,139.833 122,138.5C 121.667,127.167 121.333,115.833 121,104.5C 113.21,105.754 105.377,105.754 97.5,104.5C 97.3505,103.448 97.5172,102.448 98,101.5C 102.648,98.0188 106.815,94.0188 110.5,89.5C 107.215,88.6764 103.882,88.1764 100.5,88C 106.795,82.5403 111.462,76.0403 114.5,68.5C 104.094,71.0382 102.594,69.0382 110,62.5C 113.085,57.9998 115.918,53.3331 118.5,48.5C 115.5,47.8333 112.5,47.1667 109.5,46.5C 112.476,42.3562 115.643,38.3562 119,34.5C 122.07,29.0322 124.57,23.3655 126.5,17.5 Z"/></g>
<g><path style="opacity:1" fill="#fefffe" d="M 126.5,22.5 C 130.376,31.2298 135.709,39.0632 142.5,46C 140.432,46.6869 138.432,46.5202 136.5,45.5C 135.167,46.1667 134.167,47.1667 133.5,48.5C 136.628,55.2631 140.628,61.4298 145.5,67C 143.432,67.6869 141.432,67.5202 139.5,66.5C 138.328,66.9186 137.328,67.5853 136.5,68.5C 139.388,75.115 143.388,80.9484 148.5,86C 146.5,86.3333 144.5,86.6667 142.5,87C 141.483,88.0495 141.316,89.2161 142,90.5C 145.167,95 149,98.8333 153.5,102C 150.918,103.522 148.085,104.356 145,104.5C 140.963,104.019 136.963,103.352 133,102.5C 132.228,102.645 131.561,102.978 131,103.5C 130.5,114.828 130.333,126.162 130.5,137.5C 128.167,137.5 125.833,137.5 123.5,137.5C 123.812,126.115 123.478,114.782 122.5,103.5C 121.833,103.167 121.167,102.833 120.5,102.5C 116.518,103.259 112.518,103.926 108.5,104.5C 105.595,104.276 102.928,103.443 100.5,102C 105.547,98.6198 109.547,94.2865 112.5,89C 111.541,87.5362 110.208,86.7028 108.5,86.5C 106.845,87.228 105.179,87.3947 103.5,87C 108.744,82.7505 112.911,77.5839 116,71.5C 116.72,69.8876 116.554,68.3876 115.5,67C 113.114,67.3513 110.781,67.1847 108.5,66.5C 113.633,61.0669 117.633,54.9002 120.5,48C 117.971,46.938 115.304,46.1047 112.5,45.5C 118.447,38.6058 123.113,30.9391 126.5,22.5 Z"/></g>
<g><path style="opacity:1" fill="#002b72" d="M 3.5,29.5 C 6.93421,33.5057 10.2675,37.6724 13.5,42C 10.1832,42.4983 6.8499,42.665 3.5,42.5C 3.5,38.1667 3.5,33.8333 3.5,29.5 Z"/></g>
<g><path style="opacity:1" fill="#fea700" d="M 3.5,45.5 C 7.51383,45.3345 11.5138,45.5012 15.5,46C 19.6934,51.36 23.6934,56.86 27.5,62.5C 19.5277,63.4977 11.5277,63.831 3.5,63.5C 3.5,57.5 3.5,51.5 3.5,45.5 Z"/></g>
<g><path style="opacity:1" fill="#002b72" d="M 3.5,65.5 C 12.5246,65.1685 21.5246,65.5018 30.5,66.5C 34.3765,72.4202 38.3765,78.2535 42.5,84C 29.5043,84.4999 16.5043,84.6666 3.5,84.5C 3.5,78.1667 3.5,71.8333 3.5,65.5 Z"/></g>
<g><path style="opacity:1" fill="#fea700" d="M 3.5,86.5 C 17.1829,86.1675 30.8496,86.5008 44.5,87.5C 48.6223,92.9114 52.6223,98.4114 56.5,104C 38.8365,104.5 21.1698,104.667 3.5,104.5C 3.5,98.5 3.5,92.5 3.5,86.5 Z"/></g>
<g><path style="opacity:1" fill="#002b72" d="M 3.5,107.5 C 21.8364,107.333 40.1697,107.5 58.5,108C 62.6934,113.36 66.6934,118.86 70.5,124.5C 48.1766,125.5 25.8433,125.833 3.5,125.5C 3.5,119.5 3.5,113.5 3.5,107.5 Z"/></g>
<g><path style="opacity:1" fill="#fea700" d="M 3.5,127.5 C 26.8429,127.167 50.1762,127.5 73.5,128.5C 77.2907,133.914 80.9574,139.414 84.5,145C 58.5,145.667 32.5,145.667 6.5,145C 4.78918,139.315 3.78918,133.482 3.5,127.5 Z"/></g>
<g><path style="opacity:1" fill="#fefffe" d="M -0.5,131.5 C 6.67281,171.67 30.0061,196.67 69.5,206.5C 46.1667,206.5 22.8333,206.5 -0.5,206.5C -0.5,181.5 -0.5,156.5 -0.5,131.5 Z"/></g>
<g><path style="opacity:1" fill="#fefffe" d="M 165.5,133.5 C 165.5,157.833 165.5,182.167 165.5,206.5C 142.167,206.5 118.833,206.5 95.5,206.5C 134.142,196.858 157.475,172.524 165.5,133.5 Z"/></g>
<g><path style="opacity:1" fill="#002b72" d="M 7.5,148.5 C 34.175,148.167 60.8417,148.5 87.5,149.5C 91.6223,154.911 95.6223,160.411 99.5,166C 71.494,166.833 43.494,166.667 15.5,165.5C 12.0187,160.205 9.35199,154.538 7.5,148.5 Z"/></g>
<g><path style="opacity:1" fill="#fea700" d="M 17.5,169.5 C 45.3303,168.336 73.3303,168.17 101.5,169C 105.111,174.944 109.111,180.611 113.5,186C 87.1667,186.667 60.8333,186.667 34.5,186C 28.3297,180.996 22.6631,175.496 17.5,169.5 Z"/></g>
<g><path style="opacity:1" fill="#002b72" d="M 39.5,190.5 C 65.0032,189.171 90.6698,189.171 116.5,190.5C 117.167,191.5 117.833,192.5 118.5,193.5C 111.518,197.996 103.851,200.83 95.5,202C 75.2868,205.109 56.6201,201.275 39.5,190.5 Z"/></g>
</svg>

<svg xmlns="http://www.w3.org/2000/svg" width="166" height="207" style="shape-rendering:geometricPrecision;text-rendering:geometricPrecision;image-rendering:optimizeQuality;fill-rule:evenodd;clip-rule:evenodd"><path style="opacity:1" d="M-.5-.5h166v134c-8.025 39.024-31.358 63.358-70 73h-26c-39.494-9.83-62.827-34.83-70-75V-.5z"/><path style="opacity:1" fill="#fefffe" d="M3.5 3.5a60.937 60.937 0 0 1 11 .5A48110.731 48110.731 0 0 1 136 178.5c.667 1 .667 2 0 3a52.625 52.625 0 0 1-14.5 11 7.248 7.248 0 0 1-2.5-2L4 25.5c-.5-7.326-.666-14.66-.5-22z"/><path style="opacity:1" fill="#e10a15" d="M17.5 4.5a5184.59 5184.59 0 0 1 144-1c.167 44.335 0 88.668-.5 133-3.171 16.178-10.504 30.178-22 42A29988.255 29988.255 0 0 1 17.5 4.5z"/><path style="opacity:1" d="M80.5 7.5c2.659 2.743 4.492 6.077 5.5 10a34.692 34.692 0 0 1 6.5 7.5l-6 1a78.713 78.713 0 0 0 9 12 18.436 18.436 0 0 1-6 .5c1.637 4.584 4.304 8.584 8 12a14.73 14.73 0 0 1-5 1.5l8 8c-4.963 1.71-9.963 1.876-15 .5a222.68 222.68 0 0 0-1.5 21c-1.667 1.333-3.333 1.333-5 0a222.68 222.68 0 0 0-1.5-21c-5.148 1.531-10.148 1.198-15-1a84.714 84.714 0 0 0 8-7.5l-6-1c4.447-3.257 7.447-7.424 9-12.5a18.436 18.436 0 0 1-6-.5c4.538-3.025 7.204-7.191 8-12.5-1.788.285-3.455-.048-5-1 5.154-4.647 8.487-10.314 10-17z"/><path style="opacity:1" fill="#fefffe" d="M80.5 12.5a139.353 139.353 0 0 0 9 11c-1.189.929-2.522 1.262-4 1 .367 5.231 2.7 9.398 7 12.5-1.049.492-2.049.326-3-.5-1.22.387-1.886 1.22-2 2.5 1.119 3.741 3.119 6.908 6 9.5-.825.886-1.825 1.219-3 1 1.225 3.937 3.558 7.103 7 9.5-4.655.5-9.322.666-14 .5v21h-4v-21a84.938 84.938 0 0 1-13-.5c3.529-2.33 5.529-5.498 6-9.5-1.175.219-2.175-.114-3-1 3.82-3.116 5.486-6.95 5-11.5-1.238.077-2.238-.09-3-.5 3.607-3.213 5.607-7.213 6-12-1.478.262-2.811-.071-4-1 3.57-2.9 5.904-6.566 7-11z"/><path style="opacity:1" d="M126.5 17.5a202.982 202.982 0 0 0 8.5 17 163.705 163.705 0 0 1 9.5 12l-9 2a86.505 86.505 0 0 0 14 20.5c-3.753.091-7.42.258-11 .5 3.674 7.18 8.674 13.347 15 18.5a52.204 52.204 0 0 0-10 1.5 89.349 89.349 0 0 0 14 13.5c-1.123 1.044-2.456 1.71-4 2a90.706 90.706 0 0 1-22-.5c.167 11.338 0 22.672-.5 34-3 1.333-6 1.333-9 0l-1-34c-7.79 1.254-15.623 1.254-23.5 0a4.932 4.932 0 0 1 .5-3 70.975 70.975 0 0 0 12.5-12 52.204 52.204 0 0 0-10-1.5c6.295-5.46 10.962-11.96 14-19.5-10.406 2.538-11.906.538-4.5-6 3.085-4.5 5.918-9.167 8.5-14l-9-2a163.705 163.705 0 0 1 9.5-12 95.845 95.845 0 0 0 7.5-17z"/><path style="opacity:1" fill="#fefffe" d="M126.5 22.5c3.876 8.73 9.209 16.563 16 23.5-2.068.687-4.068.52-6-.5a6.544 6.544 0 0 0-3 3 77.128 77.128 0 0 0 12 18.5c-2.068.687-4.068.52-6-.5a7.292 7.292 0 0 0-3 2c2.888 6.615 6.888 12.448 12 17.5l-6 1c-1.017 1.05-1.184 2.216-.5 3.5 3.167 4.5 7 8.333 11.5 11.5-2.582 1.522-5.415 2.356-8.5 2.5a130.542 130.542 0 0 1-12-2 3.943 3.943 0 0 0-2 1 577.896 577.896 0 0 0-.5 34h-7a298.637 298.637 0 0 0-1-34l-2-1a261.888 261.888 0 0 1-12 2c-2.905-.224-5.572-1.057-8-2.5 5.047-3.38 9.047-7.713 12-13-.959-1.464-2.292-2.297-4-2.5-1.655.728-3.321.895-5 .5 5.244-4.25 9.411-9.416 12.5-15.5.72-1.612.554-3.112-.5-4.5a15.967 15.967 0 0 1-7-.5 60.549 60.549 0 0 0 12-18.5 45.253 45.253 0 0 0-8-2.5 81.385 81.385 0 0 0 14-23z"/><path style="opacity:1" fill="#002b72" d="M3.5 29.5a238.255 238.255 0 0 1 10 12.5c-3.317.498-6.65.665-10 .5v-13z"/><path style="opacity:1" fill="#fea700" d="M3.5 45.5a72.444 72.444 0 0 1 12 .5 290.661 290.661 0 0 1 12 16.5 144.877 144.877 0 0 1-24 1v-18z"/><path style="opacity:1" fill="#002b72" d="M3.5 65.5c9.025-.332 18.025.002 27 1a497.12 497.12 0 0 0 12 17.5c-12.996.5-25.996.667-39 .5v-19z"/><path style="opacity:1" fill="#fea700" d="M3.5 86.5c13.683-.332 27.35 0 41 1a459.432 459.432 0 0 1 12 16.5c-17.663.5-35.33.667-53 .5v-18z"/><path style="opacity:1" fill="#002b72" d="M3.5 107.5c18.336-.167 36.67 0 55 .5a290.661 290.661 0 0 1 12 16.5c-22.323 1-44.657 1.333-67 1v-18z"/><path style="opacity:1" fill="#fea700" d="M3.5 127.5c23.343-.333 46.676 0 70 1a434.337 434.337 0 0 1 11 16.5c-26 .667-52 .667-78 0a72.674 72.674 0 0 1-3-17.5z"/><path style="opacity:1" fill="#fefffe" d="M-.5 131.5c7.173 40.17 30.506 65.17 70 75h-70v-75zM165.5 133.5v73h-70c38.642-9.642 61.975-33.976 70-73z"/><path style="opacity:1" fill="#002b72" d="M7.5 148.5c26.675-.333 53.342 0 80 1a458.717 458.717 0 0 1 12 16.5c-28.006.833-56.006.667-84-.5a66.05 66.05 0 0 1-8-17z"/><path style="opacity:1" fill="#fea700" d="M17.5 169.5c27.83-1.164 55.83-1.33 84-.5a151.21 151.21 0 0 0 12 17 1559.72 1559.72 0 0 1-79 0 132.635 132.635 0 0 1-17-16.5z"/><path style="opacity:1" fill="#002b72" d="M39.5 190.5c25.503-1.329 51.17-1.329 77 0l2 3c-6.982 4.496-14.649 7.33-23 8.5-20.213 3.109-38.88-.725-56-11.5z"/></svg>
